exported-svg/camera-off.svg

<svg height="24" viewBox="0 0 24 24" width="24" xmlns="http://www.w3.org/2000/svg"><path d="m10.0664712 9.35936441c.004528.00435913.0089861.00881632.013371.01337098l5.5474224 5.54742241c.0045547.0043849.0090119.008843.013371.013371l7.7129178 7.7129178c.1952621.1952622.1952621.5118446 0 .7071068-.1952622.1952621-.5118446.1952621-.7071068 0l-1.8535534-1.8535534h-17.7928932c-1.38071187 0-2.5-1.1192881-2.5-2.5v-11c0-1.38071187 1.11928813-2.5 2.5-2.5h1.79289322l-4.14644661-4.14644661c-.19526215-.19526215-.19526215-.51184463 0-.70710678s.51184463-.19526215.70710678 0l8.71291701 8.71291705zm9.726422 11.14063559-4.4687883-4.4687884c-1.0552096 1.1733453-2.6642667 1.7195554-4.239393 1.4002155-1.77198553-.3592509-3.15688808-1.7441535-3.51613901-3.516139-.31933988-1.5751263.2268702-3.1841834 1.40021547-4.23939296l-3.17589514-3.17589514h-2.79289322c-.82842712 0-1.5.67157288-1.5 1.5v11c0 .8284271.67157288 1.5 1.5 1.5zm-5.1771909-5.1771909-4.93851135-4.9385114c-.93979862.8198624-1.38048886 2.0896539-1.12855705 3.3322937.27941739 1.3782109 1.35656382 2.4553573 2.7347747 2.7347747 1.2426398.2519318 2.5124313-.1887584 3.3322937-1.128557zm.1167058-11.8228091h-5.7324081c-.27614237 0-.5-.22385763-.5-.5s.22385763-.5.5-.5h6c.1671766 0 .3232923.08355057.4160251.2226499l1.8515668 2.7773501h3.7324081c1.3807119 0 2.5 1.11928813 2.5 2.5v9.34c0 .2761424-.2238576.5-.5.5s-.5-.2238576-.5-.5v-9.34c0-.82842712-.6715729-1.5-1.5-1.5h-4c-.1671766 0-.3232923-.08355057-.4160251-.2226499z"/></svg>

<?xml version="1.0" encoding="UTF-8"?>
<svg width="24px" height="24px" viewBox="0 0 24 24" version="1.1" xmlns="http://www.w3.org/2000/svg" xmlns:xlink="http://www.w3.org/1999/xlink">
    <!-- Generator: Sketch 55.2 (78181) - https://sketchapp.com -->
    <title>camera-off</title>
    <desc>Created with Sketch.</desc>
    <g id="camera-off" stroke="none" stroke-width="1" fill="none" fill-rule="evenodd">
        <path d="M10.0664712,9.35936441 C10.0709992,9.36372354 10.0754573,9.36818073 10.0798422,9.37273539 L15.6272646,14.9201578 C15.6318193,14.9245427 15.6362765,14.9290008 15.6406356,14.9335288 L23.3535534,22.6464466 C23.5488155,22.8417088 23.5488155,23.1582912 23.3535534,23.3535534 C23.1582912,23.5488155 22.8417088,23.5488155 22.6464466,23.3535534 L20.7928932,21.5 L3,21.5 C1.61928813,21.5 0.5,20.3807119 0.5,19 L0.5,8 C0.5,6.61928813 1.61928813,5.5 3,5.5 L4.79289322,5.5 L0.646446609,1.35355339 C0.451184464,1.15829124 0.451184464,0.841708755 0.646446609,0.646446609 C0.841708755,0.451184464 1.15829124,0.451184464 1.35355339,0.646446609 L10.0664704,9.35936366 Z M19.7928932,20.5 L15.3241049,16.0312116 C14.2688953,17.2045569 12.6598382,17.750767 11.0847119,17.4314271 C9.31272637,17.0721762 7.92782382,15.6872736 7.56857289,13.9152881 C7.24923301,12.3401618 7.79544309,10.7311047 8.96878836,9.67589514 L5.79289322,6.5 L3,6.5 C2.17157288,6.5 1.5,7.17157288 1.5,8 L1.5,19 C1.5,19.8284271 2.17157288,20.5 3,20.5 L19.7928932,20.5 Z M14.6157023,15.3228091 L9.67719095,10.3842977 C8.73739233,11.2041601 8.29670209,12.4739516 8.5486339,13.7165914 C8.82805129,15.0948023 9.90519772,16.1719487 11.2834086,16.4513661 C12.5260484,16.7032979 13.7958399,16.2626077 14.6157023,15.3228091 Z M14.7324081,3.5 L9,3.5 C8.72385763,3.5 8.5,3.27614237 8.5,3 C8.5,2.72385763 8.72385763,2.5 9,2.5 L15,2.5 C15.1671766,2.5 15.3232923,2.58355057 15.4160251,2.7226499 L17.2675919,5.5 L21,5.5 C22.3807119,5.5 23.5,6.61928813 23.5,8 L23.5,17.34 C23.5,17.6161424 23.2761424,17.84 23,17.84 C22.7238576,17.84 22.5,17.6161424 22.5,17.34 L22.5,8 C22.5,7.17157288 21.8284271,6.5 21,6.5 L17,6.5 C16.8328234,6.5 16.6767077,6.41644943 16.5839749,6.2773501 L14.7324081,3.5 Z" id="Combined-Shape" fill="#000000" fill-rule="nonzero"></path>
    </g>
</svg>
